X: 3466
T: Betty Matheson's
R: jig
M: 6/8
K: Dmajor
|:f/g/af dAF|ABA AFA|f/g/af dAF|Eee efg|
a2f dAF|BcB BAF|BdB AFE|1 FDD Dfg:|2 FDD DCB,||
|:A,DD DFA|B3 Bcd|DFA Adf|gfg efg|
a2f dAF|BcB BAF|BdB AFE|1 FDD DCB,:|2 FDD Dfg||

